packages/ui/src/assets/ranchLogo.svg

<svg width="153" height="103" viewBox="0 0 153 103" fill="none" xmlns="http://www.w3.org/2000/svg">
<path d="M149.311 0.101288C147.965 0.421783 145.011 2.70086 142.903 5.05116C139.64 8.6953 137.4 12.4225 132.184 22.9514C129.635 28.103 128.563 30.1091 127.074 32.5069C120.69 42.8339 110.995 50.0391 99.8107 52.7455C98.4767 53.0779 95.5705 53.6358 95.2013 53.6358C95.1537 53.6358 95.0584 53.4814 94.975 53.2797C94.7963 52.8523 94.0817 52.1876 93.4623 51.8671C91.9854 51.1193 89.2698 51.0125 87.8167 51.6416C87.4951 51.7721 87.2093 51.8671 87.1974 51.8434C87.1855 51.8196 87.0425 51.5347 86.8758 51.2142C86.185 49.8729 84.4103 48.6028 82.4689 48.0568C80.4798 47.5108 79.6223 47.4395 72.8809 47.3446C69.3434 47.2852 66.2943 47.2021 66.1157 47.1546C65.8536 47.0953 65.6511 47.1665 65.139 47.5108C64.2814 48.0686 61.7206 50.2172 60.3628 51.4991C59.3028 52.4962 58.2666 53.161 57.7544 53.161C57.6234 53.161 57.1827 52.8642 56.8016 52.5081C55.6939 51.4873 54.6219 51.2855 52.4542 51.6891C50.084 52.1164 48.5833 51.8434 46.2012 50.5495C44.0811 49.3862 42.5565 48.6859 41.8181 48.5197L41.1392 48.3773L37.5898 44.8044C30.7293 37.8603 29.4906 35.9848 24.9289 25.5035C21.7249 18.1677 19.8192 14.939 17.0202 12.1495C12.792 7.92374 7.36074 5.46661 1.78659 5.24107L0 5.16985L0.262033 5.53783C1.04813 6.62988 2.46549 7.49641 5.12155 8.50537C7.19399 9.30067 7.94436 9.68052 8.99249 10.5233C12.3989 13.2297 15.2336 17.5861 18.3542 24.91C19.2237 26.9516 19.4262 27.5451 20.3552 30.7145C21.7011 35.3082 22.1775 36.5783 23.976 40.2937C27.2038 46.9172 31.0033 52.0333 35.7794 56.176C37.9233 58.0277 38.4474 58.3838 39.2811 58.5619C40.1268 58.7399 40.9605 59.1317 42.8543 60.2474C44.3669 61.1377 44.6409 61.2683 48.1068 62.669C51.1679 63.9153 52.5852 64.6632 53.6095 65.5772C54.6338 66.4793 54.7291 66.8235 54.8006 69.7317L54.8601 72.0108L55.7296 72.0583C57.8259 72.1888 59.0169 73.4946 58.8502 75.465C58.743 76.7945 58.0641 78.2426 57.0517 79.3703L56.6229 79.8332L57.4209 80.2962C59.0408 81.2339 60.5177 83.1213 61.3395 85.3172C62.0899 87.2996 62.5306 89.4125 62.9236 92.8667L63.1261 94.6472L63.5906 94.9083C63.8407 95.0508 64.4005 95.2288 64.8293 95.3001C65.7464 95.4662 66.4849 95.7867 66.8303 96.1666C67.0566 96.404 67.0685 96.499 66.9732 97.1993C66.7588 98.6712 67.1519 100.084 68.0333 101.021C68.6288 101.662 69.8437 102.315 70.9633 102.6C72.0471 102.873 74.0362 103.039 75.6322 102.992C77.3592 102.944 77.3473 102.956 78.0739 101.544C78.9672 99.8226 79.4079 99.3715 80.4798 99.051C80.6227 99.0036 80.6823 98.8611 80.6823 98.505C80.6823 98.1252 80.5989 97.9352 80.2535 97.5673C80.0272 97.3061 79.8247 96.95 79.8128 96.772C79.789 96.5108 79.8486 96.4396 80.1463 96.3565C80.3488 96.309 81.0158 96.0123 81.647 95.6918L82.7905 95.122L82.8619 93.7569C83.0287 90.73 83.648 88.6646 85.5299 84.8543C86.2207 83.4536 86.9949 81.8393 87.2331 81.2695C87.7929 79.9994 87.7453 79.7145 86.8877 78.7768C85.4704 77.2218 85.5895 76.474 87.4713 75.2157C88.0311 74.8478 88.6862 74.3255 88.9363 74.0525C89.3889 73.5777 89.4008 73.5539 89.2936 72.9485C88.9125 70.5626 89.508 68.7109 91.2589 66.7879C92.0926 65.8858 92.8549 65.4347 93.6648 65.3279C98.0122 64.8056 102.884 63.2387 107.302 60.9478C109.994 59.5352 111.9 58.3601 115.699 55.713C116.652 55.0602 118.272 53.9681 119.32 53.3034C121.881 51.6534 122.834 50.9294 124.108 49.6593C126.026 47.7482 127.157 46.1813 130.016 41.4095C131.1 39.6171 132.827 36.7801 133.875 35.1183C136.186 31.4029 137.841 28.198 138.603 25.9189C138.913 25.0049 139.544 22.892 139.997 21.2302C141.736 14.9865 141.938 14.4761 144.678 9.78735C145.964 7.59137 147.143 5.28855 147.143 4.9918C147.143 4.90871 147.929 4.32707 148.894 3.69795C149.859 3.06883 150.907 2.30914 151.229 2.01239C151.908 1.38327 152.551 0.504875 152.396 0.409912C152.348 0.374306 151.979 0.267471 151.598 0.160645C150.859 -0.0292816 149.954 -0.0530243 149.311 0.101288ZM141.831 9.32441C141.021 12.6362 139.044 18.4882 137.019 23.5449C133.577 32.1033 131.517 36.2934 128.67 40.4599C124.906 45.9795 120.964 49.7661 114.496 54.0868C110.018 57.0662 102.038 60.7341 97.0236 62.0992L95.9278 62.396L95.7015 62.0992C95.3919 61.7193 95.2608 61.2564 95.0941 60.105C94.8678 58.4076 94.7487 58.0277 94.4509 58.0277C94.1055 58.0277 93.7006 58.3245 93.4981 58.7162C93.4028 58.8942 93.2718 59.5709 93.2003 60.2356C93.1289 60.9003 93.0336 61.5532 92.974 61.7075L92.8787 61.9686L92.5214 61.6719C92.1403 61.3514 92.0331 61.0902 91.64 59.6065C91.3899 58.6925 90.9969 58.0277 90.6991 58.0277C90.4728 58.0277 89.9964 58.7993 89.8415 59.3691C89.6629 60.105 89.8415 61.5057 90.3418 63.2031C90.5323 63.8679 90.6872 64.4495 90.6872 64.4851C90.6872 64.5207 90.2941 64.5563 89.8296 64.5563C89.2341 64.5563 88.8291 64.6275 88.5433 64.77C88.1502 64.9718 88.1383 64.9836 88.1621 65.6246C88.1979 66.3487 88.0192 67.1203 87.5309 68.4735C87.2927 69.1145 87.1974 69.613 87.1855 70.2303C87.1736 71.0493 87.1617 71.0968 86.8758 71.1561C86.1254 71.3223 85.5061 71.6428 84.9582 72.1295C83.8743 73.1028 83.4813 74.1237 83.5647 75.7974C83.6004 76.652 83.6838 76.9844 83.9696 77.6135C84.3865 78.4919 84.8272 79.0498 85.4584 79.5127L85.911 79.8332L84.7914 81.2695C82.052 84.795 80.9443 86.896 80.5632 89.2938C80.4083 90.2078 80.456 93.1516 80.6227 93.5433C80.6823 93.6976 80.587 93.8044 80.1821 94.0062C78.8719 94.6709 78.3955 95.2882 76.9305 98.2083L75.8585 100.345L75.3225 100.511C74.9771 100.618 73.9766 100.689 72.4402 100.725L70.0819 100.784V100.036C70.0819 98.9679 69.7007 97.2468 69.26 96.3446C68.5573 94.8609 67.4258 93.9469 65.7941 93.5314C64.7459 93.2703 64.8174 93.4364 64.603 90.8487C64.5315 89.9347 64.4124 88.5222 64.3529 87.7032C64.0551 84.1065 63.5549 83.0382 61.2442 81.1152C60.1842 80.2249 59.2432 79.2516 59.2432 79.0379C59.2432 78.9904 59.3743 78.9074 59.541 78.8717C60.0174 78.753 60.744 78.029 61.006 77.3998C61.7445 75.6905 61.6254 72.9485 60.7321 71.1443C60.5653 70.8 60.3628 70.4558 60.2795 70.3964C60.1961 70.3252 59.5767 70.254 58.8978 70.2303C57.8378 70.1947 57.6591 70.2184 57.5162 70.4083C57.3852 70.5982 57.3495 70.5626 57.2304 70.0878C57.1589 69.7911 57.0993 69.0314 57.0993 68.3904C57.0993 67.1203 56.873 66.4081 56.3847 66.0638L56.1108 65.8739L56.4204 65.5178C57.2304 64.5445 57.54 62.4553 57.016 61.3514C56.7658 60.8053 56.3371 60.2831 56.1465 60.2831C56.0989 60.2831 55.8964 60.7223 55.7296 61.2564C55.551 61.8024 55.2651 62.5028 55.0984 62.8114C54.8006 63.3693 54.4314 63.7017 54.3123 63.5117C54.2884 63.4643 54.2646 62.6571 54.2765 61.7075C54.2884 60.1525 54.2646 59.9388 54.0264 59.4878C53.5381 58.55 52.8473 58.7518 52.3708 59.9982C52.0135 60.9122 51.8825 61.0309 51.2036 61.019C49.953 60.9953 48.1783 60.3187 45.9034 59.013C43.3307 57.5292 42.1516 57.0662 40.4483 56.817L39.4359 56.6745L36.3749 53.8019C33.2424 50.8581 31.837 49.3862 30.4077 47.5464C28.8117 45.4928 27.5254 43.1544 26.6797 40.7566C26.4534 40.1038 25.8936 38.8455 25.4529 37.9671C24.3214 35.7712 23.4519 33.6701 21.5105 28.5303C20.5934 26.1088 19.6286 23.6042 19.3666 22.9514C17.1751 17.5267 15.0192 13.9419 12.2917 11.2236C11.0292 9.9654 11.0411 9.81109 12.3275 10.4521C13.3041 10.9388 15.8411 13.4196 17.0917 15.1171C17.5681 15.7699 18.2827 16.7077 18.6877 17.1943C20.4267 19.3072 20.7363 19.9126 22.9755 25.6222C25.441 31.8659 28.8117 37.7772 32.2062 41.8249C32.8613 42.6084 33.5998 43.6411 33.838 44.1159C34.2548 44.8993 34.3739 45.0299 35.2672 45.6234C36.6846 46.5611 37.8399 47.6057 38.757 48.7571L39.5789 49.778L41.2821 50.4783C48.4999 53.4458 53.7167 54.621 58.0403 54.2411C59.803 54.0868 60.2199 53.98 61.2919 53.4458C62.0303 53.0779 62.2209 52.8879 63.5787 51.238C64.3886 50.2409 65.2224 49.3032 65.4129 49.1607C65.7583 48.8996 65.8655 48.8996 69.5697 48.864L73.3573 48.8283L74.4411 49.2675C75.0486 49.5168 75.7275 49.7186 75.9657 49.7186C76.2039 49.7186 76.9781 49.5287 77.6927 49.3032C79.1935 48.8165 79.8962 48.7809 80.9562 49.137C82.5999 49.683 83.8743 50.8938 84.8748 52.8879C85.4584 54.0275 85.5299 54.1106 85.8038 54.0512C86.3636 53.9088 88.5195 53.98 89.6271 54.1699C90.2465 54.2767 91.4733 54.5498 92.3785 54.7634C94.5939 55.3095 95.6539 55.44 97.2142 55.3925C98.4767 55.3569 98.5482 55.3451 99.0484 54.9771C100.287 54.0631 100.49 53.98 101.847 53.8613C102.562 53.8019 103.241 53.7189 103.372 53.6832C103.503 53.6476 104.813 53.0304 106.29 52.33C109.053 51.0125 110.34 50.5139 111.495 50.3002C112.698 50.0747 115.223 48.1755 118.796 44.8044C119.94 43.7123 121.786 42.0505 122.881 41.1009C125.883 38.5132 126.61 37.4805 129.051 32.3644C129.837 30.7145 130.588 29.2426 130.719 29.112C130.85 28.9695 131.159 28.7678 131.398 28.6609C131.767 28.4947 131.945 28.2811 132.398 27.4264C132.982 26.3344 134.006 24.0078 135.28 20.8978C137.043 16.6127 137.71 15.3307 139.878 12.0902C140.521 11.1405 141.212 10.0604 141.426 9.68052C141.843 8.9327 141.95 8.84961 141.831 9.32441Z" fill="#BD3800"/>
<path d="M58.1118 56.0335C57.7783 57.1612 57.945 58.5381 58.5405 59.7133C58.9455 60.5205 60.0294 61.5532 60.9346 62.0042C61.6492 62.3603 61.8993 62.4197 62.5901 62.4197C63.5073 62.4197 63.7336 62.3603 63.8884 62.0636C64.079 61.7193 63.9122 61.4938 63.1618 61.1021C62.6973 60.8528 62.4591 60.651 62.4591 60.5086C62.4591 60.0338 63.4001 60.0575 66.3777 60.6392C69.2958 61.2089 70.3439 61.0902 71.0467 60.1287C71.4397 59.5827 71.4754 59.3928 71.1896 59.2741C70.9752 59.191 68.7241 58.9892 65.139 58.7399C64.0909 58.6568 63.0189 58.5619 62.7569 58.5144L62.2805 58.4432L62.2209 57.4342C62.1494 56.2235 62.0065 55.9267 61.4348 55.8199C61.1013 55.7605 60.9584 55.7961 60.7678 55.9742C60.4939 56.2472 60.4581 56.722 60.6011 57.9921C60.6964 58.7637 60.6844 58.8586 60.5058 58.8586C60.077 58.8586 59.7554 58.3245 59.4934 57.1612C59.2909 56.3184 59.148 55.9504 58.9217 55.7249C58.481 55.2738 58.3261 55.3451 58.1118 56.0335Z" fill="#BD3800"/>
<path d="M83.8982 57.5411C83.2074 57.7191 82.4093 57.9802 82.1116 58.1108C81.2302 58.4907 80.4441 59.5827 80.7538 59.9863C80.8133 60.0575 81.0277 60.3543 81.2183 60.6273C81.5756 61.114 81.5756 61.1258 82.2307 61.0784C82.6714 61.0546 83.1835 60.8884 83.8029 60.6035C84.4937 60.2712 84.8629 60.1644 85.3274 60.1644H85.9587L85.8872 60.6035C85.8515 60.8528 85.7562 61.3514 85.6728 61.7075C85.4942 62.5146 85.5895 62.9301 85.9825 63.1081C86.1493 63.1912 86.316 63.2506 86.3398 63.2506C86.3637 63.2506 86.5542 62.8114 86.7686 62.2654C87.0545 61.5532 87.1617 61.0427 87.2093 60.3187C87.2569 59.3453 87.2569 59.3453 86.9473 59.2622C86.5185 59.1554 86.0063 58.5381 85.7443 57.8022C85.6014 57.4105 85.4465 57.1968 85.3393 57.2087C85.2321 57.2087 84.589 57.363 83.8982 57.5411Z" fill="#BD3800"/>
<path d="M80.6228 66.5268C80.0987 66.966 79.5032 67.3933 79.2888 67.4764L78.9077 67.6426L78.8719 69.6842L78.8243 71.7378L78.2526 73.091C76.8352 76.4502 76.1206 81.1864 75.9777 88.2492C75.9419 89.9348 75.8824 91.7628 75.8586 92.3088L75.799 93.2822H76.0968C76.2516 93.2822 76.5613 93.1278 76.7757 92.9379L77.1687 92.5937V90.5283C77.1687 89.4006 77.2164 88.3679 77.2521 88.2373C77.2997 88.1068 77.5499 86.4805 77.8238 84.6169C78.7052 78.4207 79.2531 76.3434 80.5156 74.5035L81.0516 73.7082L80.8729 73.091C80.6347 72.3076 80.6347 70.9187 80.861 70.2421C80.9563 69.9573 81.4089 68.972 81.8734 68.058C82.3379 67.144 82.7309 66.2656 82.7429 66.0995C82.7667 65.8264 82.7309 65.8027 82.1712 65.7671C81.5875 65.7315 81.5518 65.7552 80.6228 66.5268Z" fill="#BD3800"/>
<path d="M67.3782 69.7436C67.2234 70.3133 67.2949 71.2392 67.5212 71.6784C67.6403 71.904 68.0452 72.5212 68.4144 73.0435C69.4507 74.4798 69.5459 74.6935 69.534 75.7143C69.534 76.201 69.4626 76.7233 69.3911 76.8657C69.2005 77.2218 69.3673 77.2099 69.7603 76.8538C70.4988 76.1772 70.7132 75.097 70.3797 73.7557C70.0104 72.2957 69.0457 70.6101 68.1048 69.7911C67.5926 69.34 67.4854 69.3281 67.3782 69.7436Z" fill="#BD3800"/>
<path d="M69.4982 85.2579C69.4268 85.341 69.3077 85.7208 69.2362 86.1007C69.0933 86.9078 69.2481 88.1186 69.5459 88.4035C69.7245 88.5815 69.7603 88.5697 69.927 88.356C70.2724 87.9049 70.5821 87.074 70.6416 86.4093C70.6893 85.8514 70.6655 85.6971 70.4392 85.4122C70.1652 85.068 69.7245 84.9849 69.4982 85.2579Z" fill="#BD3800"/>
<path d="M75.7631 93.8757C74.9651 94.1131 74.6316 94.8134 74.5244 96.4871L74.453 97.6741L73.9051 97.686C73.2381 97.6978 72.583 97.9115 72.4163 98.1845C72.2019 98.5169 72.5592 98.9798 73.3453 99.419C74.1552 99.8819 74.2743 99.8938 74.7388 99.5614C75.4296 99.0748 75.7036 98.2439 75.9775 95.8936C76.0728 95.0152 76.1919 94.1724 76.2277 94.0181C76.311 93.7332 76.2753 93.7213 75.7631 93.8757Z" fill="#BD3800"/>
</svg>

<svg width="153" height="103" fill="none" xmlns="http://www.w3.org/2000/svg"><path d="M149.311.101c-1.346.32-4.3 2.6-6.408 4.95-3.263 3.644-5.503 7.371-10.719 17.9-2.549 5.152-3.621 7.158-5.11 9.556-6.384 10.327-16.079 17.532-27.263 20.239-1.334.332-4.24.89-4.61.89-.047 0-.143-.155-.226-.356-.179-.428-.893-1.092-1.513-1.413-1.477-.748-4.192-.854-5.645-.225-.322.13-.608.225-.62.201a51.869 51.869 0 0 0-.321-.629c-.691-1.341-2.466-2.611-4.407-3.157-1.99-.546-2.847-.617-9.588-.712-3.538-.06-6.587-.143-6.765-.19-.262-.06-.465.011-.977.356-.858.558-3.418 2.706-4.776 3.988-1.06.997-2.096 1.662-2.609 1.662-.13 0-.571-.297-.952-.653-1.108-1.02-2.18-1.223-4.348-.819-2.37.427-3.87.154-6.253-1.14-2.12-1.163-3.645-1.863-4.383-2.03l-.679-.142-3.55-3.573c-6.86-6.944-8.098-8.82-12.66-19.3-3.204-7.336-5.11-10.565-7.909-13.355-4.228-4.225-9.66-6.682-15.233-6.908L0 5.17l.262.368c.786 1.092 2.203 1.958 4.86 2.967 2.072.796 2.822 1.176 3.87 2.018 3.407 2.707 6.242 7.063 9.362 14.387.87 2.042 1.072 2.635 2.001 5.805 1.346 4.593 1.822 5.863 3.621 9.579 3.228 6.623 7.027 11.74 11.803 15.882 2.144 1.852 2.668 2.208 3.502 2.386.846.178 1.68.57 3.573 1.685 1.513.89 1.787 1.021 5.253 2.422 3.06 1.246 4.478 1.994 5.502 2.908 1.025.902 1.12 1.246 1.192 4.155l.06 2.279.869.047c2.096.13 3.287 1.437 3.12 3.407-.107 1.33-.786 2.778-1.798 3.905l-.43.463.799.463c1.62.938 3.097 2.825 3.919 5.021.75 1.983 1.19 4.096 1.584 7.55l.202 1.78.465.261c.25.143.81.32 1.238.392.917.166 1.656.487 2.001.867.227.237.239.332.143 1.032-.214 1.472.179 2.885 1.06 3.822.596.641 1.81 1.294 2.93 1.579 1.084.273 3.073.439 4.67.392 1.726-.048 1.714-.036 2.44-1.448.894-1.721 1.335-2.172 2.407-2.493.143-.047.202-.19.202-.546 0-.38-.083-.57-.428-.938-.227-.26-.43-.617-.441-.795-.024-.261.036-.332.333-.416.203-.047.87-.344 1.501-.664l1.143-.57.072-1.365c.167-3.027.786-5.092 2.668-8.903.69-1.4 1.465-3.015 1.703-3.585.56-1.27.512-1.555-.345-2.492-1.418-1.555-1.299-2.303.583-3.561.56-.368 1.215-.89 1.465-1.163.453-.475.465-.5.358-1.105-.382-2.385.214-4.237 1.965-6.16.834-.902 1.596-1.353 2.406-1.46 4.347-.522 9.219-2.09 13.637-4.38 2.692-1.413 4.598-2.588 8.397-5.235.953-.653 2.573-1.745 3.621-2.41 2.561-1.65 3.514-2.374 4.788-3.644 1.918-1.91 3.049-3.478 5.908-8.25a482.827 482.827 0 0 1 3.859-6.29c2.311-3.716 3.966-6.921 4.728-9.2.31-.914.941-3.027 1.394-4.689 1.739-6.244 1.941-6.754 4.681-11.443 1.286-2.196 2.465-4.498 2.465-4.795 0-.083.786-.665 1.751-1.294.965-.63 2.013-1.389 2.335-1.686.679-.629 1.322-1.507 1.167-1.602-.048-.036-.417-.143-.798-.25-.739-.19-1.644-.213-2.287-.059Zm-7.48 9.223c-.81 3.312-2.787 9.164-4.812 14.22-3.442 8.56-5.502 12.75-8.349 16.916-3.764 5.52-7.706 9.306-14.174 13.627-4.478 2.98-12.458 6.647-17.472 8.012l-1.096.297-.227-.297c-.31-.38-.44-.843-.607-1.994-.226-1.697-.345-2.077-.643-2.077-.345 0-.75.297-.953.688-.095.178-.226.855-.298 1.52-.071.664-.166 1.317-.226 1.472l-.095.26-.358-.296c-.38-.32-.488-.582-.881-2.066-.25-.913-.643-1.578-.94-1.578-.227 0-.704.771-.859 1.341-.178.736 0 2.137.5 3.834.191.665.346 1.246.346 1.282 0 .036-.393.071-.857.071-.596 0-1 .072-1.287.214-.393.202-.405.214-.38.855.035.724-.144 1.495-.632 2.849-.238.64-.334 1.139-.346 1.756-.011.82-.023.867-.31.926-.75.166-1.369.487-1.917.973-1.084.974-1.477 1.995-1.393 3.668.035.855.119 1.187.405 1.817.416.878.857 1.436 1.488 1.899l.453.32-1.12 1.436c-2.739 3.526-3.847 5.627-4.228 8.025-.155.914-.107 3.858.06 4.25.06.154-.036.26-.44.462-1.311.665-1.788 1.282-3.253 4.202l-1.072 2.137-.535.166c-.346.107-1.346.178-2.883.214l-2.358.059v-.748c0-1.068-.381-2.79-.822-3.691-.703-1.484-1.834-2.398-3.466-2.814-1.048-.26-.977-.095-1.191-2.682-.072-.914-.19-2.327-.25-3.146-.298-3.597-.798-4.665-3.109-6.588-1.06-.89-2-1.863-2-2.077 0-.048.13-.13.297-.166.476-.119 1.203-.843 1.465-1.472.739-1.71.62-4.452-.274-6.256-.167-.344-.37-.688-.453-.748-.083-.07-.702-.142-1.381-.166-1.06-.035-1.239-.012-1.382.178-.13.19-.166.155-.286-.32-.071-.297-.13-1.057-.13-1.698 0-1.27-.227-1.982-.715-2.326l-.274-.19.31-.356c.81-.974 1.119-3.063.595-4.167-.25-.546-.679-1.068-.87-1.068-.047 0-.25.44-.416.973-.179.546-.465 1.247-.632 1.555-.297.558-.667.89-.786.7-.024-.047-.047-.854-.035-1.803.011-1.555-.012-1.77-.25-2.22-.489-.938-1.18-.736-1.656.51-.358.914-.489 1.033-1.167 1.021-1.251-.024-3.026-.7-5.3-2.006-2.573-1.484-3.752-1.947-5.456-2.196l-1.012-.142-3.061-2.873c-3.133-2.944-4.538-4.416-5.967-6.256a24.445 24.445 0 0 1-3.728-6.79c-.227-.652-.786-1.91-1.227-2.789-1.132-2.196-2.001-4.297-3.942-9.437a489.71 489.71 0 0 0-2.144-5.579c-2.192-5.424-4.348-9.01-7.075-11.727-1.263-1.259-1.25-1.413.036-.772.976.487 3.513 2.968 4.764 4.665.476.653 1.19 1.59 1.596 2.077 1.739 2.113 2.048 2.719 4.288 8.428 2.465 6.244 5.836 12.155 9.23 16.203.655.783 1.394 1.816 1.632 2.29.417.784.536.915 1.43 1.508 1.417.938 2.572 1.983 3.489 3.134l.822 1.021 1.703.7c7.218 2.968 12.435 4.143 16.758 3.763 1.763-.154 2.18-.261 3.252-.795.738-.368.929-.558 2.287-2.208.81-.997 1.643-1.935 1.834-2.077.345-.261.453-.261 4.157-.297l3.787-.036 1.084.44c.608.249 1.287.45 1.525.45s1.012-.19 1.727-.415c1.5-.486 2.203-.522 3.263-.166 1.644.546 2.918 1.757 3.919 3.75.583 1.14.655 1.224.929 1.164.56-.142 2.715-.071 3.823.119.62.107 1.846.38 2.752.593 2.215.547 3.275.677 4.835.63 1.263-.036 1.334-.048 1.834-.416 1.239-.914 1.442-.997 2.799-1.116.715-.06 1.394-.142 1.525-.178.131-.035 1.441-.653 2.918-1.353 2.763-1.317 4.05-1.816 5.205-2.03 1.203-.225 3.728-2.124 7.301-5.496a139.445 139.445 0 0 1 4.085-3.703c3.002-2.588 3.729-3.62 6.17-8.737.786-1.65 1.537-3.121 1.668-3.252.131-.142.44-.344.679-.451.369-.166.547-.38 1-1.235.584-1.092 1.608-3.418 2.882-6.528 1.763-4.285 2.43-5.567 4.598-8.808.643-.95 1.334-2.03 1.548-2.41.417-.747.524-.83.405-.356Z" fill="#BD3800"/><path d="M58.112 56.033c-.334 1.128-.167 2.505.428 3.68.406.807 1.49 1.84 2.395 2.291.714.356.964.416 1.655.416.917 0 1.144-.06 1.298-.356.191-.345.024-.57-.726-.962-.465-.25-.703-.451-.703-.593 0-.475.941-.452 3.919.13 2.918.57 3.966.451 4.669-.51.393-.546.428-.736.143-.855-.215-.083-2.466-.285-6.051-.534-1.048-.083-2.12-.178-2.382-.226l-.476-.07-.06-1.01c-.072-1.21-.214-1.507-.786-1.614-.334-.06-.477-.024-.667.154-.274.273-.31.748-.167 2.018.095.772.083.867-.095.867-.429 0-.75-.535-1.013-1.698-.202-.843-.345-1.21-.571-1.436-.441-.451-.596-.38-.81.308ZM83.898 57.541c-.69.178-1.489.44-1.786.57-.882.38-1.668 1.472-1.358 1.875.06.072.274.368.464.641.358.487.358.499 1.013.451.44-.023.953-.19 1.572-.475.69-.332 1.06-.439 1.524-.439h.632l-.072.44c-.035.249-.13.747-.214 1.104-.179.807-.084 1.222.31 1.4.166.083.333.143.357.143.024 0 .214-.44.429-.986a5.693 5.693 0 0 0 .44-1.946c.048-.974.048-.974-.262-1.057-.428-.107-.94-.724-1.203-1.46-.143-.392-.297-.605-.405-.593-.107 0-.75.154-1.44.332ZM80.623 66.527c-.524.439-1.12.866-1.334.95l-.381.166-.036 2.041-.048 2.054-.571 1.353c-1.418 3.36-2.132 8.095-2.275 15.158a245.275 245.275 0 0 1-.12 4.06l-.059.973h.298c.155 0 .464-.154.679-.344l.393-.344v-2.066c0-1.127.047-2.16.083-2.29.048-.131.298-1.757.572-3.621.881-6.196 1.43-8.274 2.692-10.114l.536-.795-.18-.617c-.237-.783-.237-2.172-.011-2.849.095-.285.548-1.27 1.012-2.184.465-.914.858-1.792.87-1.959.024-.273-.012-.296-.572-.332-.584-.035-.62-.012-1.548.76ZM67.378 69.744c-.155.57-.083 1.495.143 1.934.12.226.524.843.893 1.365 1.037 1.437 1.132 1.65 1.12 2.671 0 .487-.071 1.01-.143 1.152-.19.356-.024.344.37-.012.738-.677.952-1.757.619-3.098-.37-1.46-1.334-3.146-2.275-3.965-.512-.451-.62-.463-.727-.047ZM69.498 85.258c-.071.083-.19.463-.262.843-.143.807.012 2.018.31 2.302.178.178.214.167.381-.047.345-.451.655-1.282.715-1.947.047-.558.023-.712-.203-.997-.274-.344-.714-.427-.94-.154ZM75.763 93.876c-.798.237-1.131.937-1.239 2.611l-.071 1.187-.548.012c-.667.012-1.322.225-1.489.498-.214.333.143.796.93 1.235.81.463.928.475 1.393.142.69-.486.965-1.317 1.239-3.667.095-.879.214-1.722.25-1.876.083-.285.047-.297-.465-.142Z" fill="#BD3800"/></svg>
